assets/img/logo/white-logo.svg

<svg width="182" height="19" viewBox="0 0 182 19" version="1.1" xmlns="http://www.w3.org/2000/svg" xmlns:xlink="http://www.w3.org/1999/xlink">
<title></title>
<desc>Created using Figma</desc>
<g id="Canvas" transform="matrix(0.952748 0 0 0.952748 476.741 -973.59)">
<g id="white-logo">
<g id="XMLID_234_">
<g id="XMLID_243_">
<use xlink:href="#path0_fill" transform="translate(-500.385 1022.38)" fill="#FFFFFF"/>
</g>
<g id="XMLID_242_">
<use xlink:href="#path1_fill" transform="translate(-449.231 1022.38)" fill="#FFFFFF"/>
</g>
<g id="XMLID_238_">
<use xlink:href="#path2_fill" transform="translate(-474.308 1022.38)" fill="#FFFFFF"/>
</g>
<g id="XMLID_235_">
<use xlink:href="#path3_fill" transform="translate(-426 1022.38)" fill="#FFFFFF"/>
</g>
</g>
<g id="XMLID_224_">
<g id="XMLID_232_">
<use xlink:href="#path4_fill" transform="translate(-392.769 1022.38)" fill="#57AD56"/>
<use xlink:href="#path5_stroke" transform="translate(-392.769 1022.38)" fill="#57AD56"/>
</g>
<g id="XMLID_229_">
<use xlink:href="#path6_fill" transform="translate(-371.308 1022.38)" fill="#57AD56"/>
<use xlink:href="#path7_stroke" transform="translate(-371.308 1022.38)" fill="#57AD56"/>
</g>
<g id="XMLID_227_">
<use xlink:href="#path8_fill" transform="translate(-346.769 1022.38)" fill="#57AD56"/>
<use xlink:href="#path9_stroke" transform="translate(-346.769 1022.38)" fill="#57AD56"/>
</g>
<g id="XMLID_225_">
<use xlink:href="#path10_fill" transform="translate(-323.308 1022)" fill="#57AD56"/>
<use xlink:href="#path11_stroke" transform="translate(-323.308 1022)" fill="#57AD56"/>
</g>
</g>
</g>
</g>
<defs>
<path id="path0_fill" d="M 14.4615 0.461538L 14.4615 11.0769C 14.4615 14.6154 12.9231 16.0769 9.23077 16.0769C 5.53846 16.0769 4 14.6154 4 11.0769L 4 0L 0.461538 0C 0.230769 0 0 0.230769 0 0.461538L 0 11.2308C 0 17.1538 3.76923 19.2308 9.23077 19.2308C 14.6923 19.2308 18.4615 17.1538 18.4615 11.2308L 18.4615 0L 14.9231 0C 14.6923 0 14.4615 0.153846 14.4615 0.461538Z"/>
<path id="path1_fill" d="M 14.7692 3.07692C 15.0769 3.07692 15.2308 3 15.3077 2.76923L 16.3077 0.230769C 16.3846 0.0769231 16.3077 0 16.1538 0L 1.84615 0C 0.538462 0 0 0.384615 0 1.30769L 0 17.7692C 0 18.5385 0.384615 18.9231 1.38462 18.9231L 14.6923 18.9231C 15 18.9231 15.1538 18.8462 15.2308 18.6154L 16.2308 16.0769C 16.3077 15.9231 16.2308 15.8462 16.0769 15.8462L 3.92308 15.8462L 3.92308 12.4615C 3.92308 11.3077 4.53846 10.7692 6.30769 10.7692L 11.6154 10.7692C 11.9231 10.7692 12.0769 10.6923 12.1538 10.4615L 13.1538 8C 13.2308 7.84615 13.1538 7.76923 13 7.76923L 4 7.76923L 4 3L 14.7692 3L 14.7692 3.07692Z"/>
<path id="path2_fill" fill-rule="evenodd" d="M 14.6923 8.9231C 16.2308 8.0769 16.8462 6.61536 16.8462 4.76929C 16.8462 0.615356 13.4615 0 9.92307 0L 1.84616 0C 0.538452 0 0 0.384644 0 1.30774L 0 17.7693C 0 18.5385 0.384613 18.9231 1.38461 18.9231L 11.3077 18.9231C 15.0769 18.9231 17.6923 17.4615 17.6923 13.6923C 17.7692 11.3846 16.8462 9.46155 14.6923 8.9231ZM 4 3L 10.2308 3C 12.3077 3 12.9231 3.76929 12.9231 5.38464C 12.9231 7 12.3077 7.76929 10.2308 7.76929L 4 7.76929L 4 3ZM 4 15.8461L 11 15.8461C 13.2308 15.8461 13.8462 15.0769 13.8462 13.3076C 13.8462 11.5385 13.2308 10.6923 11 10.6923L 6.38461 10.6923C 4.61539 10.6923 4 11.2307 4 12.3845L 4 15.8461Z"/>
<path id="path3_fill" fill-rule="evenodd" d="M 13.6154 11.3077L 17.8462 18.6154C 17.9231 18.6923 17.9231 18.9231 17.7692 18.9231L 14.1538 18.9231C 13.8462 18.9231 13.7692 18.8462 13.6154 18.6154L 9.76923 11.6923L 6.30768 11.6923C 4.53845 11.6923 3.92307 12.2307 3.92307 13.3846L 3.92307 18.9231L 0.461548 18.9231C 0.230774 18.9231 0 18.6923 0 18.4615L 0 1.30774C 0 0.384644 0.538452 0 1.84616 0L 9.92307 0C 14.6154 0 17.4615 1.23071 17.4615 5.84619C 17.4615 9.38464 15.6923 10.7693 13.6154 11.3077ZM 3.84616 8.76929L 10.4615 8.76929C 12.9231 8.76929 13.4615 7.84619 13.4615 5.84619C 13.4615 3.9231 12.9231 3 10.4615 3L 3.84616 3L 3.84616 8.76929Z"/>
<path id="path4_fill" d="M 14.0769 17.2308L 14 18.9231L 0 18.9231L 0 0L 13.4615 0L 13.5385 1.76923L 1.92308 1.76923L 1.92308 8.30769L 11.9231 8.30769L 11.9231 9.84615L 1.92308 9.84615L 1.92308 17.2308L 14.0769 17.2308Z"/>
<path id="path5_stroke" d="M 14 18.9231L 14 19.0481L 14.1194 19.0481L 14.1249 18.9288L 14 18.9231ZM 0 18.9231L -0.125 18.9231L -0.125 19.0481L 0 19.0481L 0 18.9231ZM 0 0L 0 -0.125L -0.125 -0.125L -0.125 0L 0 0ZM 13.4615 0L 13.5864 -0.00542967L 13.5812 -0.125L 13.4615 -0.125L 13.4615 0ZM 13.5385 1.76923L 13.5385 1.89423L 13.669 1.89423L 13.6633 1.7638L 13.5385 1.76923ZM 1.92308 1.76923L 1.92308 1.64423L 1.79808 1.64423L 1.79808 1.76923L 1.92308 1.76923ZM 1.92308 8.30769L 1.79808 8.30769L 1.79808 8.43269L 1.92308 8.43269L 1.92308 8.30769ZM 11.9231 8.30769L 12.0481 8.30769L 12.0481 8.18269L 11.9231 8.18269L 11.9231 8.30769ZM 11.9231 9.84615L 11.9231 9.97115L 12.0481 9.97115L 12.0481 9.84615L 11.9231 9.84615ZM 1.92308 9.84615L 1.92308 9.72115L 1.79808 9.72115L 1.79808 9.84615L 1.92308 9.84615ZM 1.92308 17.2308L 1.79808 17.2308L 1.79808 17.3558L 1.92308 17.3558L 1.92308 17.2308ZM 13.9521 17.2251L 13.8751 18.9174L 14.1249 18.9288L 14.2018 17.2364L 13.9521 17.2251ZM 14 18.7981L 0 18.7981L 0 19.0481L 14 19.0481L 14 18.7981ZM 0.125 18.9231L 0.125 0L -0.125 0L -0.125 18.9231L 0.125 18.9231ZM 0 0.125L 13.4615 0.125L 13.4615 -0.125L 0 -0.125L 0 0.125ZM 13.3367 0.00542967L 13.4136 1.77466L 13.6633 1.7638L 13.5864 -0.00542967L 13.3367 0.00542967ZM 13.5385 1.64423L 1.92308 1.64423L 1.92308 1.89423L 13.5385 1.89423L 13.5385 1.64423ZM 1.79808 1.76923L 1.79808 8.30769L 2.04808 8.30769L 2.04808 1.76923L 1.79808 1.76923ZM 1.92308 8.43269L 11.9231 8.43269L 11.9231 8.18269L 1.92308 8.18269L 1.92308 8.43269ZM 11.7981 8.30769L 11.7981 9.84615L 12.0481 9.84615L 12.0481 8.30769L 11.7981 8.30769ZM 11.9231 9.72115L 1.92308 9.72115L 1.92308 9.97115L 11.9231 9.97115L 11.9231 9.72115ZM 1.79808 9.84615L 1.79808 17.2308L 2.04808 17.2308L 2.04808 9.84615L 1.79808 9.84615ZM 1.92308 17.3558L 14.0769 17.3558L 14.0769 17.1058L 1.92308 17.1058L 1.92308 17.3558Z"/>
<path id="path6_fill" fill-rule="evenodd" d="M 4.23077 14L 15.3846 14L 17.5385 18.9231L 19.6923 18.9231L 11 0L 8.76923 0L 0 18.9231L 2.07693 18.9231L 4.23077 14ZM 4.92307 12.3846L 9 3.23083L 9.76923 1.30774L 9.84613 1.30774L 10.6154 3.23083L 14.6154 12.3846L 4.92307 12.3846Z"/>
<path id="path7_stroke" d="M 15.3846 14L 15.4991 13.9499L 15.4664 13.875L 15.3846 13.875L 15.3846 14ZM 4.23077 14L 4.23077 13.875L 4.14902 13.875L 4.11625 13.9499L 4.23077 14ZM 17.5385 18.9231L 17.4239 18.9732L 17.4567 19.0481L 17.5385 19.0481L 17.5385 18.9231ZM 19.6923 18.9231L 19.6923 19.0481L 19.8873 19.0481L 19.8059 18.8709L 19.6923 18.9231ZM 11 0L 11.1136 -0.0521772L 11.0801 -0.125L 11 -0.125L 11 0ZM 8.76923 0L 8.76923 -0.125L 8.68938 -0.125L 8.65581 -0.0525576L 8.76923 0ZM 0 18.9231L -0.113414 18.8705L -0.195697 19.0481L 0 19.0481L 0 18.9231ZM 2.07693 18.9231L 2.07693 19.0481L 2.15869 19.0481L 2.19145 18.9732L 2.07693 18.9231ZM 9 3.23083L 9.11427 3.28173L 9.11606 3.27726L 9 3.23083ZM 4.92307 12.3846L 4.80888 12.3338L 4.73056 12.5096L 4.92307 12.5096L 4.92307 12.3846ZM 9.76923 1.30774L 9.76923 1.18274L 9.6846 1.18274L 9.65317 1.26132L 9.76923 1.30774ZM 9.84613 1.30774L 9.96219 1.26131L 9.93076 1.18274L 9.84613 1.18274L 9.84613 1.30774ZM 10.6154 3.23083L 10.4993 3.27728L 10.5008 3.28089L 10.6154 3.23083ZM 14.6154 12.3846L 14.6154 12.5096L 14.8064 12.5096L 14.7299 12.3346L 14.6154 12.3846ZM 15.3846 13.875L 4.23077 13.875L 4.23077 14.125L 15.3846 14.125L 15.3846 13.875ZM 17.653 18.873L 15.4991 13.9499L 15.2701 14.0501L 17.4239 18.9732L 17.653 18.873ZM 19.6923 18.7981L 17.5385 18.7981L 17.5385 19.0481L 19.6923 19.0481L 19.6923 18.7981ZM 10.8864 0.0521772L 19.5787 18.9753L 19.8059 18.8709L 11.1136 -0.0521772L 10.8864 0.0521772ZM 8.76923 0.125L 11 0.125L 11 -0.125L 8.76923 -0.125L 8.76923 0.125ZM 0.113414 18.9757L 8.88264 0.0525576L 8.65581 -0.0525576L -0.113414 18.8705L 0.113414 18.9757ZM 2.07693 18.7981L 0 18.7981L 0 19.0481L 2.07693 19.0481L 2.07693 18.7981ZM 4.11625 13.9499L 1.96241 18.873L 2.19145 18.9732L 4.34529 14.0501L 4.11625 13.9499ZM 8.88581 3.17998L 4.80888 12.3338L 5.03725 12.4355L 9.11419 3.28169L 8.88581 3.17998ZM 9.65317 1.26132L 8.88394 3.18441L 9.11606 3.27726L 9.88529 1.35416L 9.65317 1.26132ZM 9.84613 1.18274L 9.76923 1.18274L 9.76923 1.43274L 9.84613 1.43274L 9.84613 1.18274ZM 10.7314 3.18441L 9.96219 1.26131L 9.73007 1.35416L 10.4993 3.27726L 10.7314 3.18441ZM 14.7299 12.3346L 10.7299 3.18078L 10.5008 3.28089L 14.5008 12.4347L 14.7299 12.3346ZM 4.92307 12.5096L 14.6154 12.5096L 14.6154 12.2596L 4.92307 12.2596L 4.92307 12.5096Z"/>
<path id="path8_fill" d="M 9 1.76923L 9 18.9231L 7.07692 18.9231L 7.07692 1.76923L 0 1.76923L 0.076923 0L 16.1538 0L 16.1538 1.76923L 9 1.76923Z"/>
<path id="path9_stroke" d="M 9 18.9231L 9 19.0481L 9.125 19.0481L 9.125 18.9231L 9 18.9231ZM 7.07692 18.9231L 6.95192 18.9231L 6.95192 19.0481L 7.07692 19.0481L 7.07692 18.9231ZM 7.07692 1.76923L 7.20192 1.76923L 7.20192 1.64423L 7.07692 1.64423L 7.07692 1.76923ZM 0 1.76923L -0.124882 1.7638L -0.130553 1.89423L 0 1.89423L 0 1.76923ZM 0.076923 0L 0.076923 -0.125L -0.0427603 -0.125L -0.047959 -0.00542965L 0.076923 0ZM 16.1538 0L 16.2788 0L 16.2788 -0.125L 16.1538 -0.125L 16.1538 0ZM 16.1538 1.76923L 16.1538 1.89423L 16.2788 1.89423L 16.2788 1.76923L 16.1538 1.76923ZM 8.875 1.76923L 8.875 18.9231L 9.125 18.9231L 9.125 1.76923L 8.875 1.76923ZM 9 18.7981L 7.07692 18.7981L 7.07692 19.0481L 9 19.0481L 9 18.7981ZM 7.20192 18.9231L 7.20192 1.76923L 6.95192 1.76923L 6.95192 18.9231L 7.20192 18.9231ZM 7.07692 1.64423L 0 1.64423L 0 1.89423L 7.07692 1.89423L 7.07692 1.64423ZM 0.124882 1.77466L 0.201805 0.00542965L -0.047959 -0.00542965L -0.124882 1.7638L 0.124882 1.77466ZM 0.076923 0.125L 16.1538 0.125L 16.1538 -0.125L 0.076923 -0.125L 0.076923 0.125ZM 16.0288 0L 16.0288 1.76923L 16.2788 1.76923L 16.2788 0L 16.0288 0ZM 16.1538 1.64423L 9 1.64423L 9 1.89423L 16.1538 1.89423L 16.1538 1.64423Z"/>
<path id="path10_fill" d="M 6.38462 19.6923C 3.76923 19.6923 1.69231 19.0769 0 18.0769L 0.307692 16.3846C 2.07692 17.3846 4.07692 18 6.46154 18C 10 18 11.8462 16.3846 11.8462 14.0769C 11.8462 9.07692 0.307692 11.6923 0.307692 5.23077C 0.307692 2.46154 2.38462 0 7.23077 0C 9.46154 0 11.4615 0.384615 13.0769 1.15385L 12.7692 2.76923C 11 2.07692 9.30769 1.69231 7.30769 1.69231C 3.53846 1.69231 2.15385 3.38462 2.15385 5.07692C 2.15385 9.84615 13.6923 7.15385 13.6923 13.9231C 13.6154 17.3077 11.1538 19.6923 6.38462 19.6923Z"/>
<path id="path11_stroke" d="M 0 18.0769L -0.122984 18.0546L -0.138561 18.1402L -0.0635912 18.1845L 0 18.0769ZM 0.307692 16.3846L 0.3692 16.2758L 0.216156 16.1893L 0.184709 16.3623L 0.307692 16.3846ZM 13.0769 1.15385L 13.1997 1.17724L 13.2178 1.08247L 13.1307 1.04099L 13.0769 1.15385ZM 12.7692 2.76923L 12.7237 2.88564L 12.8639 2.94049L 12.892 2.79262L 12.7692 2.76923ZM 13.6923 13.9231L 13.8173 13.9259L 13.8173 13.9231L 13.6923 13.9231ZM 6.38462 19.5673C 3.78717 19.5686 1.74223 18.9623 0.0635912 17.9693L -0.0635912 18.1845C 1.64238 19.1915 3.75129 19.816 6.38462 19.8173L 6.38462 19.5673ZM 0.122984 18.0993L 0.430676 16.407L 0.184709 16.3623L -0.122984 18.0546L 0.122984 18.0993ZM 0.246185 16.4934C 2.0275 17.4994 4.05834 18.1236 6.46154 18.125L 6.46154 17.875C 4.09551 17.8764 2.12634 17.2698 0.3692 16.2758L 0.246185 16.4934ZM 6.46154 18.125C 8.24795 18.125 9.62415 17.7174 10.5568 17.0031C 11.4931 16.2859 11.9712 15.2676 11.9712 14.0769L 11.7212 14.0769C 11.7212 15.194 11.2761 16.1372 10.4048 16.8046C 9.52969 17.4749 8.21359 17.875 6.46154 17.875L 6.46154 18.125ZM 11.9712 14.0769C 11.9712 12.7627 11.2056 11.9538 10.1006 11.3829C 9.00504 10.8179 7.55002 10.4702 6.10951 10.0812C 4.66517 9.69127 3.243 9.2606 2.18126 8.53272C 1.12861 7.81107 0.432692 6.79931 0.432692 5.23077L 0.182692 5.23077C 0.182692 6.89299 0.929082 7.97739 2.0399 8.73892C 3.14162 9.49421 4.60406 9.93373 6.04434 10.3226C 7.48845 10.7125 8.91804 11.0523 9.98589 11.605C 11.0444 12.1519 11.7212 12.8912 11.7212 14.0769L 11.9712 14.0769ZM 0.432692 5.23077C 0.432692 3.87884 0.938733 2.60733 2.03314 1.67194C 3.12915 0.735181 4.82789 0.125 7.23077 0.125L 7.23077 -0.125C 4.78749 -0.125 3.02469 0.495588 1.87071 1.4819C 0.715113 2.46959 0.182692 3.81347 0.182692 5.23077L 0.432692 5.23077ZM 7.23077 0.125C 9.44968 0.124436 11.4226 0.503379 13.0232 1.2667L 13.1307 1.04099C 11.5005 0.265851 9.47339 -0.124436 7.23077 -0.125L 7.23077 0.125ZM 12.9541 1.13046L 12.6464 2.74584L 12.892 2.79262L 13.1997 1.17724L 12.9541 1.13046ZM 12.8148 2.65283C 11.0367 1.95744 9.32163 1.56809 7.30769 1.56731L 7.30769 1.81731C 9.29375 1.81653 10.9633 2.19641 12.7237 2.88564L 12.8148 2.65283ZM 7.30769 1.56731C 5.40611 1.56731 4.08711 1.99402 3.24065 2.65127C 2.39122 3.31082 2.02885 4.19426 2.02885 5.07692L 2.27885 5.07692C 2.27885 4.26727 2.60878 3.45841 3.39397 2.84873C 4.18212 2.23675 5.44004 1.81731 7.30769 1.81731L 7.30769 1.56731ZM 2.02885 5.07692C 2.03086 5.69543 2.22542 6.21434 2.55187 6.62657C 2.87974 7.03599 3.35282 7.36515 3.90223 7.63173C 4.99731 8.1613 6.45104 8.4868 7.89087 8.87078C 9.33413 9.25565 10.7556 9.69819 11.8167 10.4574C 12.8688 11.2103 13.5673 12.2749 13.5673 13.9231L 13.8173 13.9231C 13.8173 12.1866 13.0735 11.0493 11.9622 10.2541C 10.8597 9.46527 9.39664 9.01358 7.95528 8.62922C 6.5105 8.24397 5.07961 7.92524 4.01123 7.40674C 3.47891 7.14928 3.05055 6.85344 2.74741 6.47079C 2.44285 6.09095 2.27683 5.65072 2.27885 5.07692L 2.02885 5.07692ZM 13.5673 13.9202C 13.5296 15.5811 12.9081 16.9876 11.718 17.981C 10.5257 18.9761 8.74954 19.5673 6.38462 19.5673L 6.38462 19.8173C 8.78892 19.8173 10.6281 19.2162 11.8782 18.1729C 13.1304 17.1277 13.7781 15.6497 13.8173 13.9259L 13.5673 13.9202Z"/>
</defs>
</svg>

<svg width="182" height="19" xmlns="http://www.w3.org/2000/svg" xmlns:xlink="http://www.w3.org/1999/xlink"><use xlink:href="#path0_fill" transform="matrix(.95275 0 0 .95275 .0002 .4805)" fill="#FFF"/><use xlink:href="#path1_fill" transform="matrix(.95275 0 0 .95275 48.737 .4805)" fill="#FFF"/><use xlink:href="#path2_fill" transform="matrix(.95275 0 0 .95275 24.845 .4805)" fill="#FFF"/><use xlink:href="#path3_fill" transform="matrix(.95275 0 0 .95275 70.8704 .4805)" fill="#FFF"/><g fill="#57AD56"><g transform="matrix(.95275 0 0 .95275 102.5311 .4805)"><use xlink:href="#path4_fill"/><use xlink:href="#path5_stroke"/></g><g transform="matrix(.95275 0 0 .95275 122.978 .4805)"><use xlink:href="#path6_fill"/><use xlink:href="#path7_stroke"/></g><g transform="matrix(.95275 0 0 .95275 146.3575 .4805)"><use xlink:href="#path8_fill"/><use xlink:href="#path9_stroke"/></g><g transform="matrix(.95275 0 0 .95275 168.71 .1185)"><use xlink:href="#path10_fill"/><use xlink:href="#path11_stroke"/></g></g><defs><path id="path0_fill" d="M14.4615.4615V11.077c0 3.5385-1.5384 5-5.2307 5-3.6923 0-5.2308-1.4615-5.2308-5V0H.4615C.2308 0 0 .2308 0 .4615v10.7693c0 5.923 3.7692 8 9.2308 8 5.4615 0 9.2307-2.077 9.2307-8V0h-3.5384c-.2308 0-.4616.1538-.4616.4615z"/><path id="path1_fill" d="M14.7692 3.077c.3077 0 .4616-.077.5385-.3078l1-2.5384c.0769-.1539 0-.2308-.1539-.2308H1.8461C.5385 0 0 .3846 0 1.3077v16.4615c0 .7693.3846 1.1539 1.3846 1.1539h13.3077c.3077 0 .4615-.0769.5385-.3077l1-2.5385c.0769-.1538 0-.2307-.1539-.2307H3.9231v-3.3847c0-1.1538.6154-1.6923 2.3846-1.6923h5.3077c.3077 0 .4615-.0769.5384-.3077l1-2.4615c.077-.1539 0-.2308-.1538-.2308H4V3h10.7692v.077z"/><path id="path2_fill" fill-rule="evenodd" d="M14.6923 8.9231c1.5385-.8462 2.1539-2.3077 2.1539-4.1538C16.8462.6153 13.4615 0 9.9231 0H1.846C.5386 0 0 .3846 0 1.3077v16.4616c0 .7692.3846 1.1538 1.3846 1.1538h9.9231c3.7692 0 6.3846-1.4616 6.3846-5.2308.0769-2.3077-.8461-4.2307-3-4.7692zM4 3h6.2308c2.0769 0 2.6923.7693 2.6923 2.3846 0 1.6154-.6154 2.3847-2.6923 2.3847H4V3zm0 12.8461h7c2.2308 0 2.8462-.7692 2.8462-2.5385 0-1.7691-.6154-2.6153-2.8462-2.6153H6.3846C4.6154 10.6923 4 11.2307 4 12.3845v3.4616z"/><path id="path3_fill" fill-rule="evenodd" d="M13.6154 11.3077l4.2308 7.3077c.0769.0769.0769.3077-.077.3077h-3.6154c-.3076 0-.3846-.0769-.5384-.3077l-3.8462-6.9231H6.3077c-1.7692 0-2.3846.5384-2.3846 1.6923v5.5385H.4615c-.2307 0-.4615-.2308-.4615-.4616V1.3077C0 .3847.5385 0 1.8462 0H9.923c4.6923 0 7.5384 1.2307 7.5384 5.8462 0 3.5384-1.7692 4.9231-3.8461 5.4615zM3.8462 8.7693h6.6153c2.4616 0 3-.9231 3-2.9231 0-1.9231-.5384-2.8462-3-2.8462H3.8462v5.7693z"/><path id="path4_fill" d="M14.0769 17.2308L14 18.9231H0V0h13.4615l.077 1.7692H1.9231v6.5385h10V9.846h-10v7.3847h12.1538z"/><path id="path5_stroke" d="M14 18.9231v.125h.1194l.0055-.1193L14 18.9231zm-14 0h-.125v.125H0v-.125zM0 0v-.125h-.125V0H0zm13.4615 0l.1249-.0054-.0052-.1196h-.1197V0zm.077 1.7692v.125h.1305l-.0057-.1304-.1248.0054zm-11.6154 0v-.125h-.125v.125h.125zm0 6.5385h-.125v.125h.125v-.125zm10 0h.125v-.125h-.125v.125zm0 1.5384v.125h.125v-.125h-.125zm-10 0v-.125h-.125v.125h.125zm0 7.3847h-.125v.125h.125v-.125zm12.029-.0057l-.077 1.6923.2498.0114.0769-1.6924-.2497-.0113zM14 18.7981H0v.25h14v-.25zm-13.875.125V0h-.25v18.9231h.25zM0 .125h13.4615v-.25H0v.25zM13.3367.0054l.0769 1.7693.2497-.0109-.0769-1.7692-.2497.0108zm.2018 1.6388H1.9231v.25h11.6154v-.25zm-11.7404.125v6.5385h.25V1.7692h-.25zm.125 6.6635h10v-.25h-10v.25zm9.875-.125V9.846h.25V8.3078h-.25zm.125 1.4134h-10v.25h10v-.25zm-10.125.125v7.3847h.25V9.8462h-.25zm.125 7.5097h12.1538v-.25H1.9231v.25z"/><path id="path6_fill" fill-rule="evenodd" d="M4.2308 14h11.1538l2.1539 4.9231h2.1538L11 0H8.7692L0 18.9231h2.077L4.2307 14zm.6923-1.6154L9 3.2308l.7692-1.923h.077l.7692 1.923 4 9.1538H4.9231z"/><path id="path7_stroke" d="M15.3846 14l.1145-.0501-.0327-.0749h-.0818V14zM4.2308 14v-.125H4.149l-.0328.0749.1146.0501zm13.3077 4.9231l-.1146.0501.0328.0749h.0818v-.125zm2.1538 0v.125h.195l-.0814-.1772-.1136.0522zM11 0l.1136-.0522-.0335-.0728H11V0zM8.7692 0v-.125h-.0798l-.0336.0724L8.7692 0zM0 18.9231l-.1134-.0526-.0823.1776H0v-.125zm2.077 0v.125h.0817l.0328-.0749-.1146-.0501zM9 3.2308l.1143.051.0018-.0045L9 3.2308zm-4.077 9.1538l-.1141-.0508-.0783.1758h.1925v-.125zM9.7693 1.3077v-.125h-.0846l-.0314.0786.116.0464zm.077 0l.116-.0464-.0314-.0786H9.846v.125zm.7692 1.9231l-.1161.0465.0015.0036.1146-.05zm4 9.1538v.125h.191l-.0765-.175-.1145.05zm.7692 1.4904H4.2308v.25h11.1538v-.25zm2.2684 4.998l-2.1539-4.9231-.229.1002 2.1538 4.9231.2291-.1002zm2.0393-.0749h-2.1538v.25h2.1538v-.25zM10.8864.0521l8.6923 18.9232.2272-.1044-8.6923-18.923-.2272.1043zM8.7692.125H11v-.25H8.7692v.25zM.1134 18.9757L8.8826.0526l-.2268-.1052-8.7692 18.9231.2268.1052zm1.9635-.1776H0v.25h2.077v-.25zm2.0393-4.8482L1.9625 18.873l.229.1002 2.1539-4.9231-.229-.1002zm4.7696-10.77l-4.077 9.1539.2285.1017 4.0769-9.1538-.2284-.1017zm.7674-1.9186l-.7693 1.9231.2322.0929.7692-1.9231-.2321-.0929zm.193-.0786h-.077v.25h.077v-.25zm.8852 2.0017l-.7692-1.923-.2321.0928.7692 1.923.2321-.0928zm3.9985 9.1502l-4-9.1538-.2291.1 4 9.1539.2291-.1001zm-9.8068.175h9.6923v-.25H4.9231v.25z"/><path id="path8_fill" d="M9 1.7692v17.1539H7.077V1.7692H0L.077 0h16.0768v1.7692H9z"/><path id="path9_stroke" d="M9 18.9231v.125h.125v-.125H9zm-1.923 0h-.125v.125h.125v-.125zm0-17.1539h.125v-.125h-.125v.125zm-7.077 0l-.1249-.0054-.0057.1304H0v-.125zM.077 0v-.125h-.1198l-.0052.1196L.077 0zm16.0768 0h.125v-.125h-.125V0zm0 1.7692v.125h.125v-.125h-.125zm-7.2788 0v17.1539h.25V1.7692h-.25zM9 18.7981H7.077v.25H9v-.25zm-1.798.125V1.7692h-.25v17.1539h.25zM7.077 1.6442H0v.25h7.077v-.25zm-6.9521.1305L.2019.0054-.048-.0054l-.0769 1.7692.2498.0109zM.0769.125h16.0769v-.25H.0769v.25zM16.0288 0v1.7692h.25V0h-.25zm.125 1.6442H9v.25h7.1538v-.25z"/><path id="path10_fill" d="M6.3846 19.6923c-2.6154 0-4.6923-.6154-6.3846-1.6154l.3077-1.6923C2.0769 17.3846 4.0769 18 6.4615 18c3.5385 0 5.3847-1.6154 5.3847-3.9231 0-5-11.5385-2.3846-11.5385-8.8461C.3077 2.4615 2.3847 0 7.2307 0c2.2308 0 4.2308.3846 5.8462 1.1539l-.3077 1.6153C11 2.077 9.3077 1.6923 7.3077 1.6923c-3.7692 0-5.1539 1.6923-5.1539 3.3846 0 4.7692 11.5385 2.077 11.5385 8.8462-.0769 3.3846-2.5385 5.7692-7.3077 5.7692z"/><path id="path11_stroke" d="M0 18.0769l-.123-.0223-.0156.0856.075.0443L0 18.0769zm.3077-1.6923l.0615-.1088-.153-.0865-.0315.173.123.0223zM13.0769 1.1539l.1228.0233.0181-.0947-.0871-.0415-.0538.1129zm-.3077 1.6153l-.0455.1164.1402.0549.0281-.1479-.1228-.0234zm.9231 11.1539l.125.0028v-.0028h-.125zm-7.3077 5.6442c-2.5974.0013-4.6424-.605-6.321-1.598l-.1272.2152c1.706 1.007 3.8149 1.6315 6.4482 1.6328v-.25zM.123 18.0993l.3077-1.6923-.246-.0447-.3077 1.6923.246.0447zm.1232-1.6059c1.7813 1.006 3.8121 1.6302 6.2153 1.6316v-.25c-2.366.0014-4.3352-.6052-6.0923-1.5992l-.123.2176zm6.2153 1.6316c1.7864 0 3.1627-.4076 4.0953-1.1219.9363-.7172 1.4144-1.7355 1.4144-2.9262h-.25c0 1.1171-.4451 2.0603-1.3164 2.7277-.8751.6703-2.1912 1.0704-3.9433 1.0704v.25zm5.5097-4.0481c0-1.3142-.7656-2.1231-1.8706-2.694-1.0956-.565-2.5506-.9127-3.991-1.3017-1.4444-.39-2.8666-.8206-3.9283-1.5485C1.1286 7.8111.4327 6.7993.4327 5.2307h-.25c0 1.6623.7464 2.7467 1.8572 3.5082 1.1017.7553 2.5642 1.1948 4.0044 1.5837 1.4442.3899 2.8737.7297 3.9416 1.2824 1.0585.5469 1.7353 1.2862 1.7353 2.4719h.25zM.4327 5.2308c0-1.352.506-2.6235 1.6004-3.5589C3.1291.7352 4.828.125 7.2308.125v-.25c-2.4433 0-4.2061.6206-5.36 1.6069C.715 2.4696.1826 3.8135.1826 5.2308h.25zM7.2307.125c2.219-.0006 4.1919.3784 5.7925 1.1417l.1075-.2257c-1.6302-.7751-3.6573-1.1654-5.9-1.166v.25zm5.7234 1.0055l-.3077 1.6153.2456.0468.3077-1.6154-.2456-.0467zm-.1393 1.5223c-1.7781-.6954-3.4932-1.0847-5.5071-1.0855v.25c1.986-.0008 3.6556.3791 5.416 1.0683l.0911-.2328zM7.3077 1.5673c-1.9016 0-3.2206.4267-4.067 1.084-.8495.6595-1.2119 1.543-1.2119 2.4256h.25c0-.8096.33-1.6185 1.1152-2.2282.7881-.612 2.046-1.0314 3.9137-1.0314v-.25zM2.0288 5.077c.002.6185.1966 1.1374.523 1.5497.328.4094.801.7386 1.3504 1.0051 1.0951.5296 2.5488.8551 3.9887 1.239 1.4432.385 2.8647.8275 3.9258 1.5867 1.0521.7529 1.7506 1.8175 1.7506 3.4657h.25c0-1.7365-.7438-2.8738-1.8551-3.669-1.1025-.7888-2.5656-1.2405-4.007-1.6249-1.4447-.3852-2.8756-.704-3.944-1.2225-.5323-.2574-.9606-.5533-1.2638-.936-.3045-.3797-.4706-.82-.4686-1.3938h-.25zm11.5385 8.8433c-.0377 1.6609-.6592 3.0674-1.8493 4.0608-1.1923.9951-2.9685 1.5863-5.3334 1.5863v.25c2.4043 0 4.2435-.6011 5.4936-1.6444 1.2522-1.0452 1.8999-2.5232 1.9391-4.247l-.25-.0057z"/></defs></svg>
